X:1
T:Chocobo Theme
T:Chocobo Theme
T:Full score
T:Arr. Mubsi
%%score { 1 | 2 } 3 4 5
L:1/8
Q:1/4=150
M:4/4
K:C
V:1 treble nm="Piano" snm="Pno."
V:2 bass 
V:3 treble nm="Huilu" snm="Fl."
V:4 treble nm="Viulu" snm="Vln."
V:5 bass nm="Viulusello" snm="Vc."
V:1
 z8 | z8 | z8 | z8 | z8 | z8 | z8 | z8 | z8 | z8 | z8 | z8 | z8 | z8 | z8 | z8 || z8 | z8 | z8 | %19
 z8 | z8 | z8 | z8 | z8 | z8 | z8 | z8 | z8 | z8 | z8 | z8 | z8 || z2 .[DB]2 z .[CA]2 .[CA] | %33
 z .[DB] z .[DB] .[CA]2 .[CA]2 | z2 .[DB]2 z .[CA]2 .[CA] | z .[DB] z .[DB] .[CA]2 .[CA]2 | %36
 z2 .[DB]2 z .[CA]2 .[CA] | z .[DB] z .[DB] .[CA]2 C2 | z2 .[DB]2 z .[CA]2 .[CA] | %39
 z .[DB] z .[DB] .[CA]2 .[CA]2 | z2 .[Ee]2 z .[Dd]2 .[Dd] | z .[Ee] z .[Ee] .[Dd]2 .[Dd]2 | %42
 z2 .[^F^f]2 z .[Ee]2 .[Ee] | z .[Ee] z .[Ee] .[Dd]2 .[Dd]2 | z2 .[Ee]2 z .[Dd]2 .[Dd] | %45
 z .[Ee] z .[Ee] .[Dd]2 .[Dd]2 | z2 .[Ff]2 z .[Ee]2 .[Ee] | z .[Cc] z .[Cc] .[Da]2 .[Da]2 || z8 | %49
 z8 | z8 | z8 | z8 | z8 | z8 | z8 | z2 .[DG]2 z .[CF]2 z | z .[DG] z2 .[CF]2 .[CF]2 | %58
 z2 .[DG]2 z .[CF]2 z | .[DG]2 z2 z4 | z2 .[DG]2 z .[CF]2 z | z .[DG] z2 .[CF]2 .[CF]2 | %62
 z2 .[DG]2 z .[CF]2 z | .[DGd]2 z2 z4 || .d2 .B.G .F.d.B.G | .B2 .G2 B3 .A | %66
 .G.G/.A/ .G.F .G2 z .F | .G.G/.B/ .d.e f2 z2 | .d2 .B.G .F.d.B.G | .B2 .G2 B3 .A | %70
 .G.G/.A/ .G.F .G2 z .F | .G.G/.B/ .d.e f2 z2 | .e2 .c.A .^F.A.c.e | .d2 .g2 .d3 .B | %74
 .c2 .A.^F .D.F.A.c | .B.B/.c/ .B.A .B2 z2 | .e2 .c.A .^F.A.c.e | .d2 .g2 .d3 .B | %78
 .A.A/.B/ .A.G .A3 .G | .A.A/.B/ .c.d .e2 .^f2 | .g2 z2 z4 |] %81
V:2
 z8 | z8 | z8 | z8 | z8 | z8 | z8 | z8 | .G,,2 z2 z .D,,.F,,.D,, | %9
 .G,,.G,,._B,,.=B,, .G,, z .D,, z | .G,,2 z2 z .D,,.F,,.D,, | .G,,2 z2 z4 | %12
 .G,,2 z2 z .D,,.F,,.D,, | .G,,.G,,._B,,.=B,, .G,, z .D,, z | .G,,2 z2 z .D,,.F,,.D,, | %15
 .G,,2 z2 z4 || .G,,2 z2 z .D,,.F,,.D,, | .G,,.G,,._B,,.=B,, .G,, z .D,, z | %18
 .G,,2 z2 z .D,,.F,,.D,, | .G,,.G,,._B,,.=B,, .G,,.B,,.G,,.B,, | .G,,2 z2 z .D,,.F,,.D,, | %21
 .G,,.G,,._B,,.=B,, .G,, z .D,, z | .G,,2 z2 z .D,,.F,,.D,, | .G,,.G,,._B,,.=B,, .G,,.B,,.G,,.B,, | %24
 .C, z2 .^C,, .D,, z2 .^F,, | .G,,.B,, .^F,,2 .E,,.G,, .D,,2 | .C, z2 .^C,, .D,, z2 .G,, | %27
 .G,,.G,,.A,,._B,, .=B,,.G,,.E,,.D,, | .C, z2 .^C,, .D,, z2 .^F,, | %29
 .G,,.B,, .^F,,2 .E,,.G,, .D,,2 | .D,,.D,, z2 .D,,.D,, z2 | .D, .C,2 .B,, .A,, z .D,2 || %32
 z2 .D,2 z .C,2 .C, | z .D, z .D, .C,2 .C,2 | z2 .D,2 z .C,2 .C, | z .D, z .D, .C,2 .C,2 | %36
 z2 .D,2 z .C,2 .C, | z .D, z .D, .C,2 .C,2 | z2 .D,2 z .C,2 .C, | z .D, z .D, .C,2 .C,2 | %40
 z2 .E,2 z .D,2 .D, | z .E, z .E, .D,2 .D,2 | z2 ._G,2 z .E,2 .E, | z .E, z .E, .D,2 .D,2 | %44
 z2 .E,2 z .D,2 .D, | z .E, z .E, .D,2 .D,2 | z2 .F,2 z .E,2 .E, | z .C, z .C, .D,2 .D,2 || z8 | %49
 z8 | z8 | z8 | z8 | z8 | z8 | .G,,2 z2 z .D,,.F,,.D,, | .G,,2 z2 z .D,,.F,,.D,, | %57
 .G,,.G,,._B,,.=B,, .G,, z .D,, z | .G,,2 z2 z .D,,.F,,.D,, | .G,,2 z2 z .D,,.F,,.D,, | %60
 .G,,2 z2 z .D,,.F,,.D,, | .G,,.G,,._B,,.=B,, .G,, z .D,, z | .G,,2 z2 z .D,,.F,,.D,, | %63
 .G,,2 z2 z4 || .G,,2 z2 z .D,,.F,,.D,, | .G,,.G,,._B,,.=B,, .G,, z .D,, z | %66
 .G,,2 z2 z .D,,.F,,.D,, | .G,,.G,,._B,,.=B,, .G,,.B,,.G,,.B,, | .G,,2 z2 z .D,,.F,,.D,, | %69
 .G,,.G,,._B,,.=B,, .G,, z .D,, z | .G,,2 z2 z .D,,.F,,.D,, | .G,,.G,,._B,,.=B,, .G,,.B,,.G,,.B,, | %72
 .C, z2 .^C,, .D,, z2 .^F,, | .G,,.B,, .^F,,2 .E,,.G,, .D,,2 | .C, z2 .^C,, .D,, z2 .G,, | %75
 .G,,.G,,.A,,._B,, .=B,,.G,,.E,,.D,, | .C, z2 .^C,, .D,, z2 .^F,, | %77
 .G,,.B,, .^F,,2 .E,,.G,, .D,,2 | .D,,.D,, z2 .D,,.D,, z2 | .D, .C,2 .B,, .A,, z .D,2 | %80
 .G,,,2 z2 z4 |] %81
V:3
 z8 | z8 | z8 | z8 | z2 .d2 z .c2 .c | z .d z .d .c2 .c2 | z2 .d2 z .c2 .c | .d2 z2 z4 | %8
 z2 .d2 z .c2 .c | z .d z .d .c2 .c2 | z2 .d2 z .c2 .c | .d2 z2 z4 | z2 .d2 z .c2 .c | %13
 z .d z .d .c2 .c2 | z2 .d2 z .c2 .c | .d2 z2 z4 || .d'2 .b.g .f.d'.b.g | .b2 .g2 b3 .a | %18
 .g.g/.a/ .g.f .g2 z .f | .g.g/.b/ .d'.e' f'2 z2 | .d'2 .b.g .f.d'.b.g | .b2 .g2 b3 .a | %22
 .g.g/.a/ .g.f .g2 z .f | .g.g/.b/ .d'.e' f'2 z2 | .e'2 .c'.a .^f.a.c'.e' | .d'2 .g'2 .d'3 .b | %26
 .c'2 .a.^f .d.f.a.c' | .b.b/.c'/ .b.a .b2 z2 | .e'2 .c'.a .^f.a.c'.e' | .d'2 .g'2 .d'3 .b | %30
 .a.a/.b/ .a.g .a3 .g | .a.a/.b/ .c'.d' .e'2 .^f'2 || .G2 .B.G .F .A2 .A | .G.B.G.B .F2 .A2 | %34
 .G2 .B.G .F.A z .A | .G.B.G.B .F2 z2 | .G2 .B.G .F .A2 .A | .G.B.G.B .F2 .A2 | %38
 .G2 .B.G .F.A z .A | .G.B.G.B .F2 z2 | .c2 .g.c .d .a2 .a | .g.b.g.b ._g.b.d.b | %42
 .c2 .g.c .d .a2 .a | .g.b.g.b .f.b.d.b | .c2 .g.c .d .a2 .a | .g.b.g.b ._g.b.d.b | %46
 .f.a.e.a .d.a.c.a | .A.e.a.g ._g2 .=g2 || z8 | z8 | z2 .d2 z .c2 .c | z .d z .d .c2 .c2 | z8 | %53
 z8 | z2 .d2 z .c2 .c | .d2 z2 z4 | z2 .d2 z .c2 .c | z .d z .d .c2 .c2 | z2 .d2 z .c2 .c | %59
 .d2 z .d .c2 .c2 | z2 .d2 z .c2 .c | z .d z .d .c2 .c2 | z2 .d2 z .c2 .c | .d2 z2 z4 || %64
 z2 .B2 z .A2 .A | z .B z .B .A2 .A2 | z2 .B2 z .A2 .A | z .B z .B .A2 .A2 | z2 .B2 z .A2 .A | %69
 z .B z .B .A2 z2 | z2 .B2 z .A2 .A | z .B z .B .A2 .A2 | z2 .e2 z .d2 .d | z .e z .e .d2 .d2 | %74
 z2 .^f2 z .e2 .e | z .e z .e .d2 .d2 | z2 .e2 z .d2 .d | z .e z .e .d2 .d2 | z2 .f2 z .e2 .e | %79
 z .c z .c .a2 .a2 | .b2 z2 z4 |] %81
V:4
 z8 | z8 | z8 | z8 | z2 .D2 z .C2 .C | z .D z .D .C2 .C2 | z2 .D2 z .C2 .C | .D2 z2 z4 | %8
 z2 .D2 z .C2 .C | z .D z .D .C2 .C2 | z2 .D2 z .C2 .C | .D2 z2 z4 | .d2 .B.G .d2 .B.G | %13
 .d2 .B.G .d2 .B.G- | .G4 z4 | z8 || z2 .B2 z .A2 .A | z .B z .B .A2 .A2 | z2 .B2 z .A2 .A | %19
 z .B z .B .A2 .A2 | z2 .B2 z .A2 .A | z .B z .B .A2 z2 | z2 .B2 z .A2 .A | z .B z .B .A2 .A2 | %24
 z2 .e2 z .d2 .d | z .e z .e .d2 .d2 | z2 .^f2 z .e2 .e | z .e z .e .d2 .d2 | z2 .e2 z .d2 .d | %29
 z .e z .e .d2 .d2 | z2 .f2 z .e2 .e | z .c z .c .a2 .a2 || .d2 .B.G .F.d.B.G | .B2 .G2 B3 .A | %34
 .G.G/.A/ .G.F .G2 z .F | .G.G/.B/ .d.e f2 z2 | .d2 .B.G .F.d.B.G | .B2 .G2 B3 .A | %38
 .G.G/.A/ .G.F .G2 z .F | .G.G/.B/ .d.e f2 z2 | .e2 .c.A .^F.A.c.e | .d2 .g2 .d3 .B | %42
 .c2 .A.^F .D.F.A.c | .B.B/.c/ .B.A .B2 z2 | .e2 .c.A .^F.A.c.e | .d2 .g2 .d3 .B | %46
 .A.A/.B/ .A.G .A3 .G | .A.A/.B/ .c.d .e2 .^f2 || z8 | z8 | z8 | z8 | z2 .D2 z .C2 .C | %53
 z .D z .D .C2 .C2 | z2 .D2 z .C2 .C | .D2 z2 z4 | z2 .D2 z .C2 .C | z .D z .D .C2 .C2 | %58
 z2 .D2 z .C2 .C | .D2 z2 z4 | z2 .G2 z .G2 .G | z .G z .G .G2 .G2 | .G4 z4 | z8 || %64
 z2 .D2 z .C2 .C | z .D z .D .C2 .C2 | z2 .D2 z .C2 .C | z .D z .D .C2 .C2 | z2 .D2 z .C2 .C | %69
 z .D z .D .C2 .C2 | z2 .D2 z .C2 .C | z .D z .D .C2 .C2 | z2 .E2 z .D2 .D | z .E z .E .D2 .D2 | %74
 z2 .^F2 z .E2 .E | z .E z .E .D2 .D2 | z2 .E2 z .D2 .D | z .E z .E .D2 .D2 | z2 .F2 z .E2 .E | %79
 z .C z .C .D2 .D2 | .D2 z2 z4 |] %81
V:5
 .G,,2 .B,,.G,, .F,, .A,,2 .A,, | .G,,.B,,.G,,.B,, .F,,2 .A,,2 | .G,,2 .B,,.G,, .F,,.A,, z .A,, | %3
 .G,,2 z2 z4 | .G,,2 .B,,.G,, .F,, .A,,2 .A,, | .G,,.B,,.G,,.B,, .F,,2 .A,,2 | %6
 .G,,2 .B,,.G,, .F,,.A,, z .A,, | .G,,2 z2 z4 | .G,,2 .B,,.G,, .F,, .A,,2 .A,, | %9
 .G,,.B,,.G,,.B,, .F,,2 .A,,2 | .G,,2 .B,,.G,, .F,,.A,, z .A,, | .G,,2 z2 z4 | %12
 .G,,2 .B,,.G,, .F,, .A,,2 .A,, | .G,,.B,,.G,,.B,, .F,,2 .A,,2 | .G,,2 .B,,.G,, .F,,.A,, z .A,, | %15
 .G,,2 z2 z4 || .G,,2 .B,,.G,, .F,, .A,,2 .A,, | .G,,.B,,.G,,.B,, .F,,2 .A,,2 | %18
 .G,,2 .B,,.G,, .F,,.A,, z .A,, | .G,,.B,,.G,,.B,, .F,,2 z2 | .G,,2 .B,,.G,, .F,, .A,,2 .A,, | %21
 .G,,.B,,.G,,.B,, .F,,2 .A,,2 | .G,,2 .B,,.G,, .F,,.A,, z .A,, | .G,,.B,,.G,,.B,, .F,,2 z2 | %24
 .C,2 .G,.C, .D, .A,2 .A, | .G,.B,.G,.B, .^F,.B,.D,.B, | .C,2 .G,.C, .D, .A,2 .A, | %27
 .G,.B,.G,.B, .F,.B,.D,.B, | .C,2 .G,.C, .D, .A,2 .A, | .G,.B,.G,.B, .^F,.B,.D,.B, | %30
 .F,.A,.E,.A, .D,.A,.C,.A, | .A,,.E,.A,.G, .^F,2 .G,2 || .D,2 .B,,.G,, .F,,.D,.B,,.G,, | %33
 .B,,2 .G,,2 B,,3 .A,, | .G,,.G,,/.A,,/ .G,,.F,, .G,,2 z .F,, | .G,,.G,,/.B,,/ .D,.E, F,2 z2 | %36
 .D,2 .B,,.G,, .F,,.D,.B,,.G,, | .B,,2 .G,,2 B,,3 .A,, | .G,,.G,,/.A,,/ .G,,.F,, .G,,2 z .F,, | %39
 .G,,.G,,/.B,,/ .D,.E, F,2 z2 | .E,2 .C,.A,, ._G,,.A,,.C,.E, | .D,2 .G,2 .D,3 .B,, | %42
 .C,2 .A,,._G,, .D,,.G,,.A,,.C, | .B,,.B,,/.C,/ .B,,.A,, .B,,2 z2 | .E,2 .C,.A,, ._G,,.A,,.C,.E, | %45
 .D,2 .G,2 .D,3 .B,, | .A,,.A,,/.B,,/ .A,,.G,, .A,,3 .G,, | .A,,.A,,/.B,,/ .C,.D, .E,2 ._G,2 || %48
 .G,,2 .B,,.G,, .F,, .A,,2 .A,, | .G,,.B,,.G,,.B,, .F,,2 .A,,2 | .G,,2 .B,,.G,, .F,,.A,, z .A,, | %51
 .G,,2 z2 z4 | .G,,2 .B,,.G,, .F,, .A,,2 .A,, | .G,,.B,,.G,,.B,, .F,,2 .A,,2 | %54
 .G,,2 .B,,.G,, .F,,.A,, z .A,, | .G,,2 z2 z4 | .G,,2 .B,,.G,, .F,, .A,,2 .A,, | %57
 .G,,.B,,.G,,.B,, .F,,2 .A,,2 | .G,,2 .B,,.G,, .F,,.A,, z .A,, | .G,,2 z2 z4 | %60
 .G,,2 .B,,.G,, .F,, .A,,2 .A,, | .G,,.B,,.G,,.B,, .F,,2 .A,,2 | .G,,2 .B,,.G,, .F,,.A,, z .A,, | %63
 .G,,2 z2 z4 || .G,,2 .B,,.G,, .F,, .A,,2 .A,, | .G,,.B,,.G,,.B,, .F,,2 .A,,2 | %66
 .G,,2 .B,,.G,, .F,,.A,, z .A,, | .G,,.B,,.G,,.B,, .F,,2 z2 | .G,,2 .B,,.G,, .F,, .A,,2 .A,, | %69
 .G,,.B,,.G,,.B,, .F,,2 .A,,2 | .G,,2 .B,,.G,, .F,,.A,, z .A,, | .G,,.B,,.G,,.B,, .F,,2 z2 | %72
 .C,2 .G,.C, .D, .A,2 .A, | .G,.B,.G,.B, .^F,.B,.D,.B, | .C,2 .G,.C, .D, .A,2 .A, | %75
 .G,.B,.G,.B, .F,.B,.D,.B, | .C,2 .G,.C, .D, .A,2 .A, | .G,.B,.G,.B, .^F,.B,.D,.B, | %78
 .F,.A,.E,.A, .D,.A,.C,.A, | .A,,.E,.A,.G, .^F,2 .G,2 | .G,2 z2 z4 |] %81

